X:1
T: 30-ars Jiggen
C: Roger Tallroth
M:6/8     %Meter
L:1/8     %
K:G
D |:"C"EDE "D"FEF |"G"GBG D2 D |"C"EcB AGE |"D"FGA- AFD |
"C"EDE "D"FEF |"G"GBG D2 D |"C"EcB AGE ||1"D"FGG- "G"G2 D :|2"G"FGG- G z z ||
|:"G"gfg "D"agf |"G"g2 g d2 d |"C"egf edc |BAG "D"A2 A |"G"gfg agf |g2 g d2 d |
"C"egf ed"Em"B-|Bgf edB |"C"cBA "G"B2 B |"C"ced "G"BAB |"C"cBc eag |"D"fgg-"G" g2 z :|
     %End of file
